svgs/sharp-regular/bridge-lock.svg

<svg xmlns="http://www.w3.org/2000/svg" viewBox="0 0 640 512"><!--! Font Awesome Pro 6.6.0 by @fontawesome - https://fontawesome.com License - https://fontawesome.com/license (Commercial License) Copyright 2024 Fonticons, Inc. --><path d="M32 32l24 0 520 0 24 0 0 48-24 0-40 0 0 64 48 0 24 0 0 48-1.6 0c-20.2-19.8-47.9-32-78.4-32s-58.2 12.2-78.4 32L280 192l-48 0-80 0-48 0-48 0-24 0 0-48 24 0 48 0 0-64L56 80 32 80l0-48zM384 258.5l0 29.5 0 39c-12-23.2-36.1-39-64-39c-39.8 0-72 32.2-72 72l0 96 0 24-24 0-96 0-24 0 0-24 0-120c0-26.5-21.5-48-48-48l-24 0 0-48 24 0c53 0 96 43 96 96l0 96 48 0 0-72c0-66.3 53.7-120 120-120c23.5 0 45.5 6.8 64 18.5zM408 80l0 64 80 0 0-64-80 0zm-48 64l0-64-80 0 0 64 80 0zM152 80l0 64 80 0 0-64-80 0zM528 240c-17.7 0-32 14.3-32 32l0 48 64 0 0-48c0-17.7-14.3-32-32-32zm-80 32c0-44.2 35.8-80 80-80s80 35.8 80 80l0 48 32 0 0 192-224 0 0-192 32 0 0-48z"/></svg>

<svg xmlns="http://www.w3.org/2000/svg" viewBox="0 0 640 512"><!--! Font Awesome Pro 6.4.2 by @fontawesome - https://fontawesome.com License - https://fontawesome.com/license (Commercial License) Copyright 2023 Fonticons, Inc. --><path d="M32 32H56 576h24V80H576 536v64h48 24v48h-1.6c-20.2-19.8-47.9-32-78.4-32s-58.2 12.2-78.4 32H280 232 152 104 56 32V144H56h48V80H56 32V32zM384 258.5V288v39c-12-23.2-36.1-39-64-39c-39.8 0-72 32.2-72 72v96 24H224 128 104V456 336c0-26.5-21.5-48-48-48H32V240H56c53 0 96 43 96 96v96h48V360c0-66.3 53.7-120 120-120c23.5 0 45.5 6.8 64 18.5zM408 80v64h80V80H408zm-48 64V80H280v64h80zM152 80v64h80V80H152zM528 240c-17.7 0-32 14.3-32 32v48h64V272c0-17.7-14.3-32-32-32zm-80 32c0-44.2 35.8-80 80-80s80 35.8 80 80v48h32V512H416V320h32V272z"/></svg>
